!!!OTL: ES KAM EIN MANN AUS NINNEVEH
!!!ARE: Europa, Mitteleuropa, Deutschland, Sachsen, Dresden
!!!SCT: E1904
!!!YEM: Copyright 1995, estate of Helmut Schaffrath.
**kern
*ICvox
*Ivox
*M2/4
*k[f#]
*G:
{8d
=1
8g
8g
8g
8b
=2
8g
8g
8d
8r
=3
8g
8b
8g
8r}
=4
{8a
8g
8f#
8e
=5
8d
8b
8b}
{8d
=6
8g
8g
8g
8b
=7
8g
8g
8d
8r
=8
8g
8b
8g
8r}
=9
{8a
8g
8f#
8e
=10
8d
8b
8b}
==
!!!AGN: Kinder - Lied, Tanz, Spiel, Brautwerbung
!!!ONB: ESAC (Essen Associative Code) Database: ERK3
!!!AMT: simple duple
!!!AIN: vox
!!!EED: Helmut Schaffrath
!!!EEV: 1.0
*-
